X:1
T:Christmas Day
T:Christmas Day
T:William A. Post
T:Julia Harriet Johnston, 1911
T:Public Domain Courtesy of the Cyber Hymnal™
T:Public Domain Courtesy of the Cyber Hymnal™
C:William A. Post
Z:Public Domain
Z:Courtesy of the Cyber Hymnal™
%%score 1 ( 2 3 )
L:1/8
Q:1/4=80
M:4/4
K:Bb
V:1 treble 
V:2 bass 
V:3 bass 
V:1
 [B,D][CE][^C=E][DF] [Fd]>[_E^c] [DB][DF] | [B,D][Dc][DB][DG] [EB][EA] [EA]2 | %2
w: 1.~Christ- mas Day! O hap- py mea- sure,|How its songs and puls- es thrill!|
w: 2.~Christ- mas Day, with joy un- fail- ing,|Comes to bring us near- er Christ;|
w: 3.~Hail, all hail the heav’n- ly Strang- er,|Peace on earth He came to bring;|
 [CE][CE][=B,D][CE] [Ec]>[E=B] [EA][EG] | [EB][EA][EA][EG] [EG][DF] [DF]2 | %4
w: How its greet- ings and its trea- sure|All our hearts with glad- ness fill!|
w: To this earth, o’er sin pre- vail- ing,|He has brought the gift, un- priced:|
w: Cra- dled in a low- ly man- ger,|Yet our Sav- ior, Lord and King.|
 [CF][C=E][Ec][Ec] [CG][CF][Cc][Cc] | [CF][C=E][Ec]"^riten."[EG] [^D^F][EG] !fermata![_Ec]2 | %6
w: Let the winds of win- ter, blow- ing,|Toss the snow- flakes in the air;|
w: Com- ing from the heav’n- ly ci- ty,|Leav- ing yon- der throne and crown,|
w: Glad- some day, lift up your voic- es,|Sing with joy the Christ- mas song;|
"^a tempo" [DB][DB][FB][FA] [FA][EG][EG][Ec] | [DB]>[DB] [EB][EA] [EG][EA] [DB]2 || %8
w: Sun- light in the heart is glow- ing,|Christ- mas Day is al- ways fair.|
w: In His ten- der- ness and pi- ty,|Je- sus brought sal- va- tion down.|
w: Heav’n a- bove with earth re- joic- es,|Praise Him with yon shin- ing throng.|
"^Refrain" [Fd][DF] !>![Dc]2 [DB][B,D] !>![DG]2 | [DF]>[DG] [DA][Dc] [EB][EA] [EA]2 | %10
w: ||
w: Hap- py day, hap- py day,|Full of light and heav’n- ly love,|
w: ||
 [Ec][EG] !>![EB]2 [FA][CE] !>![EA]2 | [EG]>[EG] [EG][EA] [EG][DF] [DF]2 | %12
w: ||
w: Hear us sing, heav’n- ly King,|Grate- ful songs to Thee a- bove;|
w: ||
 [Fd][DF] !>![Dc]2 [DB][B,D] !>![DG]2 | [DF]>[DF] [EG][F_A] [FA][EG] [EG]2 | %14
w: ||
w: All the way, all the way,|Let us sing our song of cheer,|
w: ||
 [^CB][CB][CA][CG] [DF][DB] [Fd]2 | [EF]2 [Ec]2 [DB]4 |] %16
w: ||
w: Joy- ous Christ- mas now is here,|Christ- mas Day!|
w: ||
V:2
 [B,,F,][B,,F,][B,,G,][B,,B,] [B,,B,]>[B,,B,] [B,,B,][B,,B,] | %1
 [B,,F,][B,,F,][B,,F,][B,,B,] [F,C][F,C] [F,C]2 | %2
 [F,A,][F,A,][F,^G,][F,A,] [F,A,]>[F,=G,] [F,C][F,C] | %3
 [F,C][F,C][F,C][F,A,] [B,,B,][B,,B,] [B,,B,]2 | %4
 [C,B,][C,B,][C,B,][C,B,] [C,A,][C,A,][C,A,][C,A,] | %5
 [C,B,][C,B,][C,B,][C,B,] [C,A,][C,B,] !fermata![F,A,]2 | %6
 [B,,B,][B,,B,][D,B,][D,B,] [D,B,][D,B,][D,B,][E,G,] | F,>F, [F,C][F,C] [F,C]F, [B,,F,]2 || %8
 [B,,B,][B,,B,] [B,,F,]2 [B,,F,][B,,F,] [B,,B,]2 | %9
 [B,,B,]>[B,,B,] [B,,B,][B,,B,] [F,C][F,C] [F,C]2 | [F,A,][F,A,] [F,C]2 [F,C][F,A,] [F,C]2 | %11
 [F,A,]>[F,A,] [F,A,][F,A,] [B,,B,][B,,B,] [B,,B,]2 | %12
 [B,,B,][B,,B,] [B,,F,]2 [B,,F,][B,,F,] [B,,B,]2 | %13
 [B,,B,]>[B,,B,] [B,,B,][D,B,] [E,B,][E,B,] [E,B,]2 | %14
 [=E,G,][E,G,][E,G,][E,B,] [F,B,][F,B,] [F,B,]2 | [F,A,]2 [F,A,]2 [B,,B,]4 |] %16
V:3
 x8 | x8 | x8 | x8 | x8 | x8 | x8 | F,>F, x5/2 F, x5/2 || x8 | x8 | x8 | x8 | x8 | x8 | x8 | x8 |] %16

